priv/static/images/languages/typescript.svg

<svg
  width="128"
  height="128"
  viewBox="0 0 128 128"
  fill="none"
  xmlns="http://www.w3.org/2000/svg"
>
  <path d="M22.6699 47H122.34V120.67H22.6699V47Z" fill="white" />
  <path
    d="M1.5 63.91V126.41H126.5V1.41H1.5V63.91ZM102.23 58.91C105.224 59.6048 107.945 61.1706 110.05 63.41C111.209 64.6165 112.216 65.9597 113.05 67.41C113.05 67.57 107.65 71.22 104.36 73.26C104.24 73.34 103.76 72.82 103.23 72.03C102.629 70.9937 101.776 70.1264 100.75 69.5091C99.7231 68.8918 98.557 68.5446 97.36 68.5C93.57 68.24 91.13 70.23 91.15 73.5C91.1187 74.3141 91.3051 75.1219 91.69 75.84C92.52 77.57 94.07 78.6 98.93 80.7C107.88 84.55 111.71 87.09 114.09 90.7C116.75 94.7 117.34 101.16 115.54 105.94C113.54 111.14 108.64 114.67 101.71 115.84C98.5448 116.203 95.3468 116.169 92.19 115.74C87.3516 114.942 82.8948 112.619 79.47 109.11C78.32 107.84 76.08 104.53 76.22 104.29C76.5851 104.019 76.9694 103.775 77.37 103.56L82 101L85.59 98.92L86.34 100.03C87.6057 101.841 89.2166 103.383 91.08 104.57C95.08 106.67 100.54 106.38 103.24 103.95C104.147 103.06 104.712 101.879 104.838 100.615C104.964 99.3505 104.643 98.0819 103.93 97.03C102.93 95.64 100.93 94.47 95.34 92.03C88.89 89.25 86.11 87.53 83.57 84.79C81.9843 82.9819 80.8136 80.8486 80.14 78.54C79.6375 75.9025 79.5633 73.2012 79.92 70.54C81.25 64.31 85.92 59.96 92.74 58.67C95.8984 58.2792 99.0977 58.3669 102.23 58.93V58.91ZM72.89 64.15V69.27H56.66V115.5H45.15V69.26H28.88V64.26C28.8293 62.5358 28.8694 60.81 29 59.09C29.08 59 39 59 51 59H72.83L72.89 64.15Z"
    fill="#007ACC"
  />
</svg>

<svg xmlns="http://www.w3.org/2000/svg" width="128" height="128" fill="none"><path fill="#fff" d="M22.67 47h99.67v73.67H22.67z"/><path fill="#007ACC" d="M1.5 63.91v62.5h125v-125H1.5zm100.73-5a15.56 15.56 0 0 1 7.82 4.5 20.6 20.6 0 0 1 3 4c0 .16-5.4 3.81-8.69 5.85-.12.08-.6-.44-1.13-1.23a7.1 7.1 0 0 0-5.87-3.53c-3.79-.26-6.23 1.73-6.21 5a4.6 4.6 0 0 0 .54 2.34c.83 1.73 2.38 2.76 7.24 4.86 8.95 3.85 12.78 6.39 15.16 10 2.66 4 3.25 10.46 1.45 15.24-2 5.2-6.9 8.73-13.83 9.9a38.3 38.3 0 0 1-9.52-.1 23 23 0 0 1-12.72-6.63c-1.15-1.27-3.39-4.58-3.25-4.82a9 9 0 0 1 1.15-.73L82 101l3.59-2.08.75 1.11a16.8 16.8 0 0 0 4.74 4.54c4 2.1 9.46 1.81 12.16-.62a5.43 5.43 0 0 0 .69-6.92c-1-1.39-3-2.56-8.59-5-6.45-2.78-9.23-4.5-11.77-7.24a16.5 16.5 0 0 1-3.43-6.25 25 25 0 0 1-.22-8c1.33-6.23 6-10.58 12.82-11.87a31.7 31.7 0 0 1 9.49.26zm-29.34 5.24v5.12H56.66v46.23H45.15V69.26H28.88v-5a49 49 0 0 1 .12-5.17C29.08 59 39 59 51 59h21.83z"/></svg>
